uiw/folder-open.svg

<svg xmlns="http://www.w3.org/2000/svg" viewBox="0 0 20 20" height="1em" width="1em">
  <path fill="#555" d="M2.28207116,3.82782681 C1.93139275,3.89061436 1.7157592,4.01654323 1.59095975,4.20187553 C1.42601097,4.44683125 1.35229976,4.7111041 1.36642402,5.04312449 L1.36642402,16.7613195 L0.00219214494,15.8199344 L0.00283001003,5.07182967 C-0.0229451366,4.49213499 0.127444335,3.95295167 0.449958452,3.47400497 C0.806771203,2.94412338 1.37895412,2.62368924 2.11578248,2.50841391 L2.22403448,2.5 L5.78364338,2.50089037 C6.52617637,2.53835758 7.13918702,2.8504057 7.5673719,3.41670863 C7.95383536,3.9278322 8.03930749,4.3271066 8.05143177,5.05577361 C8.05289264,5.14357156 8.05441458,5.20651435 8.05673655,5.25714322 C8.10252727,5.25681998 8.16561873,5.2543483 8.24999125,5.24771098 L13.8860925,5.24771098 L13.9870677,5.25502564 C14.5731461,5.34040977 15.0767664,5.58357289 15.475608,5.97894537 C15.9106992,6.41025215 16.1077382,7.00704635 16.0901105,7.71349439 L16.0901105,9.51198092 L14.7258786,9.51198092 L14.7260752,7.69755466 C14.7356739,7.3085356 14.6533055,7.05905711 14.5021591,6.90922534 C14.3244518,6.73306379 14.1070169,6.62340783 13.8308199,6.57550784 L8.31495364,6.57252008 C7.46062988,6.65207335 6.81082721,6.32129645 6.71389794,5.55548458 C6.69584787,5.41287583 6.69119406,5.30657387 6.68737876,5.0772749 C6.67947407,4.60220433 6.64376562,4.43539594 6.46860999,4.203741 C6.28652585,3.96292263 6.05309487,3.84409647 5.7483285,3.82782681 L2.28207116,3.82782681 Z M18.0541929,9.33232428 C18.8851491,9.34586199 19.5133485,9.63622951 19.8235275,10.2404607 C20.1178599,10.8138226 20.0344287,11.465691 19.6446869,12.1495456 L19.5904006,12.2303314 L16.7469081,15.8558964 C16.4072818,16.3040608 16.0164881,16.6739616 15.575319,16.9622577 C15.092264,17.2779256 14.4871575,17.4527498 13.7239643,17.5 L2.01621448,17.5 C1.38335385,17.5 0.88557293,17.3585887 0.543818101,17.0226149 C0.123275488,16.6091861 -0.0449570231,16.173181 0.0125925563,15.6292076 C0.0484070969,15.2906793 0.182045605,14.9606796 0.427887186,14.6070125 L3.8727539,10.7736483 C4.41137054,10.2157011 4.89226434,9.83387624 5.33785369,9.627461 C5.74163234,9.44041419 6.22593684,9.34520596 6.78220116,9.33260234 L18.0541929,9.33232428 Z M7.01197487,10.6599374 C6.53566393,10.6510962 6.1729768,10.7111445 5.92413292,10.8264192 C5.65941708,10.9490464 5.29955756,11.2347713 4.91080662,11.632703 L1.53497688,15.3817716 C1.43257155,15.5300848 1.38107021,15.6572594 1.36964886,15.7652169 C1.35499848,15.9036961 1.37308811,15.9505786 1.51328084,16.0883999 C1.55206873,16.1265317 1.71273115,16.1721732 2.01621448,16.1721732 L13.6793641,16.1735939 C14.173415,16.1420849 14.5490628,16.0335548 14.8148728,15.8598527 C15.1225687,15.6587788 15.4003536,15.3958451 15.6557597,15.0589677 L18.4741643,11.4652437 C18.6444618,11.1539559 18.6664278,10.9572147 18.6031488,10.8339467 C18.5530343,10.7363234 18.4008596,10.6659849 18.042777,10.6600581 L7.01197487,10.6599374 Z"/>
</svg>

<svg xmlns="http://www.w3.org/2000/svg" viewBox="0 0 20 20" height="1em" width="1em">
  <path fill="#555" d="M2.282 3.828c-.35.063-.566.189-.691.374a1.33 1.33 0 0 0-.225.841v11.718L.002 15.82V5.072A2.6 2.6 0 0 1 .45 3.474c.357-.53.929-.85 1.666-.966l.108-.008h3.56c.742.038 1.355.35 1.783.917.387.51.472.91.484 1.639.002.088.003.15.006.201.046 0 .109-.003.193-.01h5.636l.101.008a2.6 2.6 0 0 1 1.489.724c.435.431.632 1.028.614 1.734v1.799h-1.364V7.698c.01-.39-.073-.639-.224-.789a1.21 1.21 0 0 0-.671-.333l-5.516-.003c-.854.08-1.504-.252-1.601-1.018a3.953 3.953 0 0 1-.027-.478c-.008-.475-.043-.642-.218-.873a.908.908 0 0 0-.72-.376H2.281Zm15.772 5.504c.831.014 1.46.304 1.77.908.294.574.21 1.226-.18 1.91l-.054.08-2.843 3.626c-.34.448-.73.818-1.172 1.106-.483.316-1.088.49-1.851.538H2.016c-.633 0-1.13-.141-1.472-.477-.42-.414-.589-.85-.531-1.394.035-.338.169-.668.415-1.022l3.445-3.833c.538-.558 1.02-.94 1.465-1.147.404-.187.888-.282 1.444-.294h11.272ZM7.012 10.66c-.476-.009-.839.051-1.088.166-.265.123-.624.409-1.013.807l-3.376 3.749a.858.858 0 0 0-.165.383c-.015.139.003.186.143.323.04.039.2.084.503.084l11.663.002c.494-.032.87-.14 1.136-.314.308-.201.585-.464.84-.801l2.82-3.594c.17-.311.191-.508.128-.631-.05-.098-.202-.168-.56-.174H7.012Z"/>
</svg>
